X:32
T:Mrs. Crowley's No. 1
Z: id:dc-polka-26
M:2/4
L:1/8
K:G Major
DG EG/E/|DG EG/E/|DG AG/A/|BA A2|!
DG EG/E/|DG EG/E/|DG AG/A/|BG G2:|!
Bd gd|Bd gd|Bd gd|BA A2|!
[1 Bd gd|Bd gd|GB AG/A/|BG G2:|!
[2 Bd g2|Bd g2|GB AG/A/|BG G2|]!

